packages/foundations/assets/icons/functional/images/audio & video/play.svg

<svg xmlns="http://www.w3.org/2000/svg" width="32" height="32" fill="none"><path fill="#1A1C1F" fill-rule="evenodd" d="M10.087 7.043a1.95 1.95 0 0 0-.996.554 1.93 1.93 0 0 0-.551 1.032c-.085.4-.085 14.342 0 14.742.094.444.257.738.586 1.064.402.396.766.543 1.354.545.338.001.493-.027.747-.133.176-.074 2.816-1.724 5.866-3.668 6.035-3.844 6.027-3.839 6.267-4.459.17-.44.17-1 0-1.44-.238-.615-.248-.623-6.107-4.352a1036 1036 0 0 0-5.68-3.601c-.446-.263-1.037-.376-1.486-.284m5.928 5.481c2.985 1.893 5.421 3.462 5.412 3.488s-2.463 1.605-5.455 3.509c-5.201 3.31-5.439 3.455-5.45 3.317-.006-.08-.019-3.221-.027-6.98-.011-4.588.002-6.825.038-6.805.029.017 2.496 1.579 5.482 3.471"/></svg>

<svg width="32" height="32" viewBox="0 0 32 32" fill="none" xmlns="http://www.w3.org/2000/svg"><path d="M10.087 7.043 C 9.721 7.117,9.383 7.305,9.091 7.597 C 8.795 7.895,8.631 8.201,8.540 8.629 C 8.455 9.029,8.455 22.971,8.540 23.371 C 8.634 23.815,8.797 24.109,9.126 24.435 C 9.528 24.831,9.892 24.978,10.480 24.980 C 10.818 24.981,10.973 24.953,11.227 24.847 C 11.403 24.773,14.043 23.123,17.093 21.179 C 23.128 17.335,23.120 17.340,23.360 16.720 C 23.530 16.280,23.530 15.720,23.360 15.280 C 23.122 14.665,23.112 14.657,17.253 10.928 C 14.291 9.043,11.735 7.422,11.573 7.327 C 11.127 7.064,10.536 6.951,10.087 7.043 M16.015 12.524 C 19.000 14.417,21.436 15.986,21.427 16.012 C 21.418 16.038,18.964 17.617,15.972 19.521 C 10.771 22.831,10.533 22.976,10.522 22.838 C 10.516 22.758,10.503 19.617,10.495 15.858 C 10.484 11.270,10.497 9.033,10.533 9.053 C 10.562 9.070,13.029 10.632,16.015 12.524 " fill="#1A1C1F" stroke="none" fill-rule="evenodd"></path></svg>
